src/assets/images/mail.svg

<svg xmlns="http://www.w3.org/2000/svg" version="1.1" width="512px" height="512px" style="shape-rendering:geometricPrecision; text-rendering:geometricPrecision; image-rendering:optimizeQuality; fill-rule:evenodd; clip-rule:evenodd" xmlns:xlink="http://www.w3.org/1999/xlink">
<g><path style="opacity:0.998" fill="#f44336" d="M 64.5,63.5 C 127.836,114.16 191.503,164.493 255.5,214.5C 319.497,164.493 383.164,114.16 446.5,63.5C 470.041,59.1566 489.207,66.1566 504,84.5C 507.106,90.0319 509.606,95.6986 511.5,101.5C 511.5,204.167 511.5,306.833 511.5,409.5C 506.015,429.151 493.348,441.651 473.5,447C 464.84,447.5 456.173,447.666 447.5,447.5C 447.667,347.833 447.5,248.166 447,148.5C 383.223,198.123 319.056,247.123 254.5,295.5C 191.185,246.364 127.685,197.364 64,148.5C 63.5,248.166 63.3333,347.833 63.5,447.5C 40.2989,451.678 21.4655,444.678 7,426.5C 3.89416,420.968 1.39416,415.301 -0.5,409.5C -0.5,306.833 -0.5,204.167 -0.5,101.5C 4.98517,81.8488 17.6518,69.3488 37.5,64C 46.4938,63.5002 55.4938,63.3336 64.5,63.5 Z"/></g>
<g><path style="opacity:1" fill="#eceef0" d="M 64.5,63.5 C 191.833,63.5 319.167,63.5 446.5,63.5C 383.164,114.16 319.497,164.493 255.5,214.5C 191.503,164.493 127.836,114.16 64.5,63.5 Z"/></g>
<g><path style="opacity:1" fill="#eceef0" d="M 254.5,295.5 C 318.788,345.786 382.788,396.453 446.5,447.5C 318.833,447.5 191.167,447.5 63.5,447.5C 63.3333,347.833 63.5,248.166 64,148.5C 127.685,197.364 191.185,246.364 254.5,295.5 Z"/></g>
<g><path style="opacity:1" fill="#cfd7db" d="M 447.5,447.5 C 447.167,447.5 446.833,447.5 446.5,447.5C 382.788,396.453 318.788,345.786 254.5,295.5C 319.056,247.123 383.223,198.123 447,148.5C 447.5,248.166 447.667,347.833 447.5,447.5 Z"/></g>
</svg>

<svg xmlns="http://www.w3.org/2000/svg" width="512" height="512" style="shape-rendering:geometricPrecision;text-rendering:geometricPrecision;image-rendering:optimizeQuality;fill-rule:evenodd;clip-rule:evenodd"><path fill="#f44336" d="M64.5 63.5a21428.134 21428.134 0 0 0 191 151 21428.134 21428.134 0 0 0 191-151c23.541-4.343 42.707 2.657 57.5 21 3.106 5.532 5.606 11.199 7.5 17v308c-5.485 19.651-18.152 32.151-38 37.5-8.66.5-17.327.666-26 .5.167-99.667 0-199.334-.5-299a13366.093 13366.093 0 0 1-192.5 147A43726.01 43726.01 0 0 0 64 148.5c-.5 99.666-.667 199.333-.5 299-23.201 4.178-42.035-2.822-56.5-21-3.106-5.532-5.606-11.199-7.5-17v-308c5.485-19.651 18.152-32.151 38-37.5 8.994-.5 17.994-.666 27-.5Z" style="opacity:.998"/><path fill="#eceef0" d="M64.5 63.5h382a21428.134 21428.134 0 0 1-191 151 21428.134 21428.134 0 0 1-191-151ZM254.5 295.5a20949.323 20949.323 0 0 1 192 152h-383c-.167-99.667 0-199.334.5-299a43726.01 43726.01 0 0 1 190.5 147Z" style="opacity:1"/><path fill="#cfd7db" d="M447.5 447.5h-1a20949.323 20949.323 0 0 0-192-152 13366.093 13366.093 0 0 0 192.5-147c.5 99.666.667 199.333.5 299Z" style="opacity:1"/></svg>
